Gruvbox-Material-Icons/actions/16/draw-halfcircle1.svg

<svg xmlns="http://www.w3.org/2000/svg" width="16" height="16" viewBox="0 0 16 16">
 <defs>
  <style id="current-color-scheme" type="text/css">
   .ColorScheme-Text { color:#ebdbb2; } .ColorScheme-Highlight { color:#458588; }
  </style>
 </defs>
 <path style="fill:currentColor" class="ColorScheme-Text" d="M 10.859375 1.0097656 C 7.072275 1.0097656 4.0019531 4.1426594 4.0019531 8.0058594 C 4.0019531 11.869059 7.072275 15 10.859375 15 L 12.001953 15 L 12.001953 13.833984 L 12.001953 13.716797 L 12.001953 2.2988281 L 12.001953 2.1757812 L 12.001953 1.0097656 C 12.001953 1.0097656 10.938275 0.98816562 10.859375 1.0097656 z"/>
</svg>

<svg width="16" height="16" viewBox="0 0 16 16" xmlns="http://www.w3.org/2000/svg">
  <defs>
    <style id="current-color-scheme" type="text/css">.ColorScheme-Text { color:#ebdbb2; } .ColorScheme-Highlight { color:#458588; }</style>
  </defs>
  <path class="ColorScheme-Text" d="m10.86 1.01c-3.787 0-6.857 3.133-6.857 6.996 0 3.863 3.07 6.994 6.857 6.994h1.143v-1.166-0.1172-11.42-0.123-1.166s-1.064-0.0216-1.143 0z" fill="currentColor"/>
</svg>
